!!!!SEGMENT: pl-cz--iii-553--001-009_raszek-waclaw--missa-in-f-agnus-dei.krn
!!!cenid: 18xx:1002
!!!COM: Raszek, Wacław
!!!COM-rismID:
!!!CDT: <1848->1848
!!!CNT:
!!!OPR: Missa in F
!!!OTL: Agnus Dei
!!!OMV: 009
!!!PDT: 1829
!!!AGN: Sacred; Mass
!!!SMS-siglum: PL-CZ
!!!SMS-shelfmark: III-553
!!!SMS-shelfwork: 001-009 M
!!!SMS-variant:
!!!SMS-altvar:
!!!NIFC-rismSourceID: 300001048
!!!NIFC-islandoraID: pl-cz:38806
!!!URL-pdf-islandora: https://repozytorium.nifc.pl/islandora/object/pl-cz%3A38806/datastream/PDF/view
!!!URL-scan:
!!!ONB-nifc: UWAGA: części Mszy: Kyrie, Gloria, Credo, Et incarnatus, Et resurrexit, Sanctus, Pleni sunt, Benedictus, Agnus Dei, Dona nobis
!!!AIN: 1 alto 1 bass 2 clars 2 cor 1 organ 1 soprn 1 tenor 1 viola 2 violn
!!!key: c
**kern	**dynam	**kern	**dynam	**kern	**dynam	**kern	**dynam	**kern	**text	**dynam	**kern	**text	**dynam	**kern	**text	**dynam	**kern	**text	**kern	**dynam	**kern	**dynam	**kern	**dynam	**kern	**dynam
*	*	*group4	*	*group4	*	*group4	*	*group3	*	*	*group3	*	*	*group3	*	*	*group3	*	*group2	*	*group2	*	*group1	*	*group1	*
*part12	*part12	*part11	*part11	*part10	*part10	*part9	*part9	*part8	*part8	*part8	*part7	*part7	*part7	*part6	*part6	*part6	*part5	*part5	*part4	*part4	*part3	*part3	*part2	*part2	*part1	*part1
*staff12	*	*staff11	*	*staff10	*	*staff9	*	*staff8	*staff8	*	*staff7	*staff7	*	*staff6	*staff6	*	*staff5	*staff5	*staff4	*	*staff3	*	*staff2	*	*staff1	*
*I"Organo.	*	*I"Alto Viola	*	*I"Violino Secondo.	*	*I"Violino Primo.	*	*I"Basso.	*	*	*I"Tenore.	*	*	*I"Alto.	*	*	*I"Canto.	*	*I"Corno Secondo in F.	*	*I"Corno Primo in F.	*	*I"Clarinetto Secondo in B.	*	*I"Clarinetto. Primo. in B.	*
*I'org	*	*I'a-vla	*	*I'vl 2	*	*I'vl 1	*	*I'B	*	*	*I'T	*	*	*I'A	*	*	*I'S	*	*I'cor 2 in F	*	*I'cor 1 in F	*	*I'cl 2 in B	*	*I'cl 1 in B	*
*Iorgan	*	*Iviola	*	*Ivioln	*	*Ivioln	*	*Ibass	*	*	*Itenor	*	*	*Ialto	*	*	*Isoprn	*	*Icor	*	*Icor	*	*Iclars	*	*Iclars	*
*ICklav	*	*ICstr	*	*ICstr	*	*ICstr	*	*ICvox	*	*	*ICvox	*	*	*ICvox	*	*	*ICvox	*	*ICbras	*	*ICbras	*	*ICww	*	*ICww	*
*IGcont	*	*	*	*	*	*	*	*IGcoro	*	*	*IGcoro	*	*	*IGcoro	*	*	*IGcoro	*	*	*	*	*	*	*	*	*
*clefF4	*	*clefC3	*	*clefG2	*	*clefG2	*	*clefF4	*	*	*clefC4	*	*	*clefC3	*	*	*clefC1	*	*clefG2	*	*clefG2	*	*clefG2	*	*clefG2	*
*	*	*	*	*	*	*	*	*	*	*	*	*	*	*	*	*	*	*	*ITrd4c7	*	*ITrd4c7	*	*ITrd1c2	*	*ITrd1c2	*
*k[b-e-]	*	*k[b-e-]	*	*k[b-e-]	*	*k[b-e-]	*	*k[b-e-]	*	*	*k[b-e-]	*	*	*k[b-]	*	*	*k[b-]	*	*k[b-e-]	*	*k[b-e-]	*	*k[b-e-]	*	*k[b-e-]	*
*c:	*	*c:	*	*c:	*	*c:	*	*c:	*	*	*c:	*	*	*c:	*	*	*c:	*	*c:	*	*c:	*	*c:	*	*c:	*
*M3/4	*	*M3/4	*	*M3/4	*	*M3/4	*	*M3/4	*	*	*M3/4	*	*	*M3/4	*	*	*M3/4	*	*M3/4	*	*M3/4	*	*M3/4	*	*M3/4	*
=1	=1	=1	=1	=1	=1	=1	=1	=1	=1	=1	=1	=1	=1	=1	=1	=1	=1	=1	=1	=1	=1	=1	=1	=1	=1	=1
*	*	*	*	*	*	*	*below	*2\right	*	*	*	*	*	*	*	*	*	*	*	*	*	*	*	*	*	*
!	!	!	!	!	!	!	!	!	!	!	!	!	!	!LO:TX:t=P:problem=błędne oznaczenie tonacji, brak bemola e-	!	!	!LO:TX:t=P:problem=błędne oznaczenie tonacji, brak bemola e-	!	!	!	!	!	!	!	!	!
!	!	!	!	!	!	!	!	!	!	!	!LO:TX:a:t=26	!	!	!LO:TX:a:t=12.	!	!	!LO:TX:b:t=26.	!	!LO:TX:b:t=26	!	!LO:TX:a:t=26	!	!	!	!	!
!LO:TX:t=P:problem=mixed beam	!	!	!	!	!	!	!	!LO:TX:a:i:t=Solo. expresivo.	!	!	!LO:TX:b:t=26.	!	!	!LO:TX:b:t=12.	!	!	!LO:TX:a:t=26.	!	!LO:TX:a:t=26.	!	!LO:TX:b:t=26.	!	!LO:TX:a:t=26.	!	!LO:TX:b:t=10.	!
!LO:TX:a:i:t=adagio. Solo.	!	!	!	!LO:TX:a:i:t=Adagio.	!	!LO:TX:a:i:t=Adagio Solo.	!	!LO:TX:a:i:t=Adagio	!	!	!	!	!	!	!	!	!LO:TX:a:rj:t=adagio.	!	!LO:TX:a:rj:t=adagio	!	!LO:TX:a:t=Adagio.	!	!	!	!LO:TX:a:i:t=Adagio	!
8GG/L	.	8G/L	fp	8g/L	fp	8g/L	fp	2G\	A-	.	2.r	.	.	2.r	.	.	2.r	.	2.r	.	2.r	.	2.r	.	0.r	.
8G\J	.	8E-/J	.	8B-/J	.	8G/J	.	.	.	.	.	.	.	.	.	.	.	.	.	.	.	.	.	.	.	.
*2\right	*	*	*	*	*	*	*	*	*	*	*	*	*	*	*	*	*	*	*	*	*	*	*	*	*	*
*tremolo	*	*tremolo	*	*tremolo	*	*	*	*	*	*	*	*	*	*	*	*	*	*	*	*	*	*	*	*	*	*
8G\L	.	8D/L	.	8B-/L	.	8g/L	.	.	.	.	.	.	.	.	.	.	.	.	.	.	.	.	.	.	.	.
8G\	.	8D/	.	8B-/	.	8g/	.	.	.	.	.	.	.	.	.	.	.	.	.	.	.	.	.	.	.	.
.	.	.	.	.	.	.	.	16qqA/	.	.	.	.	.	.	.	.	.	.	.	.	.	.	.	.	.	.
8G\	.	8D/	.	8B-/	.	8g/	.	16G\LL	-gnus	.	.	.	.	.	.	.	.	.	.	.	.	.	.	.	.	.
.	.	.	.	.	.	.	.	16F#X\	.	.	.	.	.	.	.	.	.	.	.	.	.	.	.	.	.	.
8G\J	.	8D/J	.	8B-/J	.	8g/J	.	16G\	.	.	.	.	.	.	.	.	.	.	.	.	.	.	.	.	.	.
.	.	.	.	.	.	.	.	16A\JJ	.	.	.	.	.	.	.	.	.	.	.	.	.	.	.	.	.	.
*Xtremolo	*	*Xtremolo	*	*Xtremolo	*	*	*	*	*	*	*	*	*	*	*	*	*	*	*	*	*	*	*	*	*	*
=2	=2	=2	=2	=2	=2	=2	=2	=2	=2	=2	=2	=2	=2	=2	=2	=2	=2	=2	=2	=2	=2	=2	=2	=2	=2	=2
!	!	!	!	!LO:N:vis=16	!	!	!	!	!	!	!	!	!	!	!	!	!	!	!	!	!	!	!	!	!	!
8r	.	8r	.	8r	.	8r	.	(8.B-\L	De-	.	2.r	.	.	2.r	.	.	2.r	.	2.r	.	2.r	.	2.r	.	.	.
8G\	.	8g\	.	8B-/L	.	8g/L	.	.	.	.	.	.	.	.	.	.	.	.	.	.	.	.	.	.	.	.
.	.	.	.	.	.	.	.	16G\Jk)	.	.	.	.	.	.	.	.	.	.	.	.	.	.	.	.	.	.
*	*	*2\right	*	*	*	*	*	*	*	*	*	*	*	*	*	*	*	*	*	*	*	*	*	*	*	*
*tremolo	*	*tremolo	*	*	*	*	*	*	*	*	*	*	*	*	*	*	*	*	*	*	*	*	*	*	*	*
!	!	!	!	!	!	!	!	!LO:N:vis=8	!	!	!	!	!	!	!	!	!	!	!	!	!	!	!	!	!	!
8G\L	.	8g\L	.	8d/	.	8b-/	.	4G\	-i	.	.	.	.	.	.	.	.	.	.	.	.	.	.	.	.	.
8G\	.	8g\	.	8d/	.	8b-/	.	.	.	.	.	.	.	.	.	.	.	.	.	.	.	.	.	.	.	.
8G\	.	8g\	.	8d/	.	8b-/	.	8r	.	.	.	.	.	.	.	.	.	.	.	.	.	.	.	.	.	.
8G\J	.	8g\J	.	8d/J	.	8b-/J	.	8d\	qui	.	.	.	.	.	.	.	.	.	.	.	.	.	.	.	.	.
*Xtremolo	*	*Xtremolo	*	*	*	*	*	*	*	*	*	*	*	*	*	*	*	*	*	*	*	*	*	*	*	*
=3	=3	=3	=3	=3	=3	=3	=3	=3	=3	=3	=3	=3	=3	=3	=3	=3	=3	=3	=3	=3	=3	=3	=3	=3	=3	=3
8r	.	8r	.	8r	.	8r	.	8.d\L	tol-	.	2.r	.	.	2.r	.	.	2.r	.	2.r	.	2.r	.	2.r	.	.	.
8F#X\L	.	8d\L	.	8a/L	.	8dd\L	.	.	.	.	.	.	.	.	.	.	.	.	.	.	.	.	.	.	.	.
.	.	.	.	.	.	.	.	16A\Jk	.	.	.	.	.	.	.	.	.	.	.	.	.	.	.	.	.	.
8F#\	.	8d\	.	8a/	.	8dd\	.	4A\	-lis	.	.	.	.	.	.	.	.	.	.	.	.	.	.	.	.	.
8F#\	.	8d\	.	8a/	.	8dd\	.	.	.	.	.	.	.	.	.	.	.	.	.	.	.	.	.	.	.	.
8F#\	.	8d\	.	8a/	.	8dd\	.	8.r	.	.	.	.	.	.	.	.	.	.	.	.	.	.	.	.	.	.
8Fn\J	.	8Bn\J	.	8a-X/J	.	8dd\J	.	.	.	.	.	.	.	.	.	.	.	.	.	.	.	.	.	.	.	.
.	.	.	.	.	.	.	.	16Bn\	pec-	.	.	.	.	.	.	.	.	.	.	.	.	.	.	.	.	.
=4	=4	=4	=4	=4	=4	=4	=4	=4	=4	=4	=4	=4	=4	=4	=4	=4	=4	=4	=4	=4	=4	=4	=4	=4	=4	=4
!	!	!	!	!	!	!	!	!	!	!LO:HP:a	!	!	!	!	!	!	!	!	!	!	!	!	!	!	!	!
!	!	!	!	!	!	!	!	!	!	!LO:DY:a:rj	!	!	!	!	!	!	!	!	!	!	!	!	!	!	!	!
8r	.	8r	.	8r	.	8r	.	2c\	-ca-	p <	2.r	.	.	2.r	.	.	2.r	.	2.r	.	2.r	.	2.r	.	.	.
8En\	.	8c\L	.	8g/	.	8cc\	.	.	.	.	.	.	.	.	.	.	.	.	.	.	.	.	.	.	.	.
*	*	*	*	*	*	*2\right	*	*	*	*	*	*	*	*	*	*	*	*	*	*	*	*	*	*	*	*
*tremolo	*	*	*	*tremolo	*	*tremolo	*	*	*	*	*	*	*	*	*	*	*	*	*	*	*	*	*	*	*	*
8E\L	.	8en\	.	8g/L	.	8cc\L	.	.	.	.	.	.	.	.	.	.	.	.	.	.	.	.	.	.	.	.
8E\	.	8e\	.	8g/	.	8cc\	.	.	.	.	.	.	.	.	.	.	.	.	.	.	.	.	.	.	.	.
8E\	.	8e\	.	8g/	.	8cc\	.	4c\	-ta	[	.	.	.	.	.	.	.	.	.	.	.	.	.	.	.	.
8E\J	.	8e\J	.	8g/J	.	8cc\J	.	.	.	.	.	.	.	.	.	.	.	.	.	.	.	.	.	.	.	.
*Xtremolo	*	*	*	*Xtremolo	*	*Xtremolo	*	*	*	*	*	*	*	*	*	*	*	*	*	*	*	*	*	*	*	*
!	!	!LO:LB:g=original	!	!	!	!	!	!LO:LB:g=original	!	!	!	!	!	!	!	!	!	!	!	!	!	!	!	!	!	!
=5	=5	=5	=5	=5	=5	=5	=5	=5	=5	=5	=5	=5	=5	=5	=5	=5	=5	=5	=5	=5	=5	=5	=5	=5	=5	=5
!	!	!	!	!LO:TX:t=P:problem=takt zapisany repetycją	!	!	!	!	!	!	!	!	!	!	!	!	!	!	!	!	!	!	!	!	!	!
8r	.	8r	.	8ryy	.	8r	.	8.c\L	mun-	.	2.r	.	.	2.r	.	.	2.r	.	2.r	.	2.r	.	2.r	.	0.r	.
8E-X\	.	8E-X/L	.	8g/yy	.	8cc\	.	.	.	.	.	.	.	.	.	.	.	.	.	.	.	.	.	.	.	.
.	.	.	.	.	.	.	.	16G\Jk	.	.	.	.	.	.	.	.	.	.	.	.	.	.	.	.	.	.
*tremolo	*	*	*	*tremolo	*	*tremolo	*	*	*	*	*	*	*	*	*	*	*	*	*	*	*	*	*	*	*	*
8E-\L	.	8E-/	.	8g/Lyy	.	8cc\L	.	4G\	-di	.	.	.	.	.	.	.	.	.	.	.	.	.	.	.	.	.
8E-\	.	8E-/	.	8g/yy	.	8cc\	.	.	.	.	.	.	.	.	.	.	.	.	.	.	.	.	.	.	.	.
8E-\	.	8E-/	.	8g/yy	.	8cc\	.	4r	.	.	.	.	.	.	.	.	.	.	.	.	.	.	.	.	.	.
8E-\J	.	8E-/J	.	8g/Jyy	.	8cc\J	.	.	.	.	.	.	.	.	.	.	.	.	.	.	.	.	.	.	.	.
*Xtremolo	*	*	*	*Xtremolo	*	*Xtremolo	*	*	*	*	*	*	*	*	*	*	*	*	*	*	*	*	*	*	*	*
!	!	!	!	!	!	!LO:PB:g=original	!	!	!	!	!	!	!	!	!	!	!	!	!	!	!	!	!	!	!	!
=6	=6	=6	=6	=6	=6	=6	=6	=6	=6	=6	=6	=6	=6	=6	=6	=6	=6	=6	=6	=6	=6	=6	=6	=6	=6	=6
8r	.	8r	.	8r	.	8r	.	2e-\	mi-	.	2.r	.	.	2.r	.	.	2.r	.	2.r	.	2.r	.	2.r	.	.	.
8C/	.	8A/	.	8f#X/	.	8ee-\L	.	.	.	.	.	.	.	.	.	.	.	.	.	.	.	.	.	.	.	.
*tremolo	*	*tremolo	*	*tremolo	*	*	*	*	*	*	*	*	*	*	*	*	*	*	*	*	*	*	*	*	*	*
8C/L	.	8A/L	.	8f#/L	.	8ee-\	.	.	.	.	.	.	.	.	.	.	.	.	.	.	.	.	.	.	.	.
8C/	.	8A/	.	8f#/	.	8ee-\	.	.	.	.	.	.	.	.	.	.	.	.	.	.	.	.	.	.	.	.
8C/	.	8A/	.	8f#/	.	8ee-\	.	4C/	-se-	.	.	.	.	.	.	.	.	.	.	.	.	.	.	.	.	.
8C/J	.	8A/J	.	8f#/J	.	8ee-\J	.	.	.	.	.	.	.	.	.	.	.	.	.	.	.	.	.	.	.	.
*	*	*Xtremolo	*	*Xtremolo	*	*	*	*	*	*	*	*	*	*	*	*	*	*	*	*	*	*	*	*	*	*
!	!	!	!	!LO:LB:g=original	!	!	!	!	!	!	!	!	!	!	!	!	!	!	!	!	!	!	!	!	!	!
=7	=7	=7	=7	=7	=7	=7	=7	=7	=7	=7	=7	=7	=7	=7	=7	=7	=7	=7	=7	=7	=7	=7	=7	=7	=7	=7
8r	.	8r	.	8r	.	8r	.	(8BB-\L	-re-	.	2.r	.	.	2.r	.	.	2.r	.	2.r	.	2.r	.	2.r	.	.	.
8BB-/	.	8B-/	.	8g/	.	8dd\L	.	8D\	.	.	.	.	.	.	.	.	.	.	.	.	.	.	.	.	.	.
*tremolo	*	*tremolo	*	*tremolo	*	*	*	*	*	*	*	*	*	*	*	*	*	*	*	*	*	*	*	*	*	*
8BB-/L	.	8B-/L	.	8g/L	.	8dd\	.	8G\	.	.	.	.	.	.	.	.	.	.	.	.	.	.	.	.	.	.
8BB-/	.	8B-/	.	8g/	.	8dd\	.	8B-\J)	.	.	.	.	.	.	.	.	.	.	.	.	.	.	.	.	.	.
8BB-/	.	8B-/	.	8g/	.	8dd\	.	4d\	-re	.	.	.	.	.	.	.	.	.	.	.	.	.	.	.	.	.
8BB-/J	.	8B-/J	.	8g/J	.	8dd\J	.	.	.	.	.	.	.	.	.	.	.	.	.	.	.	.	.	.	.	.
*Xtremolo	*	*Xtremolo	*	*Xtremolo	*	*	*	*	*	*	*	*	*	*	*	*	*	*	*	*	*	*	*	*	*	*
=8	=8	=8	=8	=8	=8	=8	=8	=8	=8	=8	=8	=8	=8	=8	=8	=8	=8	=8	=8	=8	=8	=8	=8	=8	=8	=8
8r	.	8r	.	8r	.	8r	.	2e-\	mi-	.	2.r	.	.	2.r	.	.	2.r	.	2.r	.	2.r	.	2.r	.	.	.
8C/	.	8A/	.	8f#X/	.	8ee-\L	.	.	.	.	.	.	.	.	.	.	.	.	.	.	.	.	.	.	.	.
*tremolo	*	*tremolo	*	*tremolo	*	*	*	*	*	*	*	*	*	*	*	*	*	*	*	*	*	*	*	*	*	*
8C/L	.	8A/L	.	8f#/L	.	8ee-\	.	.	.	.	.	.	.	.	.	.	.	.	.	.	.	.	.	.	.	.
8C/	.	8A/	.	8f#/	.	8ee-\	.	.	.	.	.	.	.	.	.	.	.	.	.	.	.	.	.	.	.	.
8C/	.	8A/	.	8f#/	.	8ee-\	.	4C/	-se-	.	.	.	.	.	.	.	.	.	.	.	.	.	.	.	.	.
8C/J	.	8A/J	.	8f#/J	.	8ee-\J	.	.	.	.	.	.	.	.	.	.	.	.	.	.	.	.	.	.	.	.
*Xtremolo	*	*Xtremolo	*	*Xtremolo	*	*	*	*	*	*	*	*	*	*	*	*	*	*	*	*	*	*	*	*	*	*
=9	=9	=9	=9	=9	=9	=9	=9	=9	=9	=9	=9	=9	=9	=9	=9	=9	=9	=9	=9	=9	=9	=9	=9	=9	=9	=9
8r	.	8r	.	8r	.	8r	.	(8BB-\L	-re-	.	2.r	.	.	2.r	.	.	2.r	.	2.r	.	2.r	.	2.r	.	1.r	.
8BB-/	.	8B-/	.	8g/	.	8dd\L	.	8D\	.	.	.	.	.	.	.	.	.	.	.	.	.	.	.	.	.	.
*tremolo	*	*tremolo	*	*tremolo	*	*	*	*	*	*	*	*	*	*	*	*	*	*	*	*	*	*	*	*	*	*
8BB-/L	.	8B-/L	.	8g/L	.	8dd\	.	8G\	.	.	.	.	.	.	.	.	.	.	.	.	.	.	.	.	.	.
8BB-/	.	8B-/	.	8g/	.	8dd\	.	8B-\J)	.	.	.	.	.	.	.	.	.	.	.	.	.	.	.	.	.	.
8BB-/	.	8B-/	.	8g/	.	8dd\	.	4d\	-re	.	.	.	.	.	.	.	.	.	.	.	.	.	.	.	.	.
8BB-/J	.	8B-/J	.	8g/J	.	8dd\J	.	.	.	.	.	.	.	.	.	.	.	.	.	.	.	.	.	.	.	.
*Xtremolo	*	*Xtremolo	*	*Xtremolo	*	*	*	*	*	*	*	*	*	*	*	*	*	*	*	*	*	*	*	*	*	*
=10	=10	=10	=10	=10	=10	=10	=10	=10	=10	=10	=10	=10	=10	=10	=10	=10	=10	=10	=10	=10	=10	=10	=10	=10	=10	=10
.	.	.	.	.	.	.	.	8qd/	.	.	.	.	.	.	.	.	.	.	.	.	.	.	.	.	.	.
8C/L	.	8r	.	8r	.	8r	.	(8c\L	no-	.	2.r	.	.	2.r	.	.	2.r	.	2.r	.	2.r	.	2.r	.	.	.
8C/	.	8c\L	.	8e-/L	.	8cc/L	.	16B-\L	.	.	.	.	.	.	.	.	.	.	.	.	.	.	.	.	.	.
.	.	.	.	.	.	.	.	16A\JJ	.	.	.	.	.	.	.	.	.	.	.	.	.	.	.	.	.	.
8D/	.	8d\	.	8g/	.	8b-/	.	4A\	.	.	.	.	.	.	.	.	.	.	.	.	.	.	.	.	.	.
8D/	.	8d\	.	8g/	.	8b-/	.	.	.	.	.	.	.	.	.	.	.	.	.	.	.	.	.	.	.	.
8DD/	.	8c\	.	8f#X/	.	8a/	.	8.D\L)	.	.	.	.	.	.	.	.	.	.	.	.	.	.	.	.	.	.
8DD/J	.	8c\J	.	8f#/J	.	8a/J	.	.	.	.	.	.	.	.	.	.	.	.	.	.	.	.	.	.	.	.
.	.	.	.	.	.	.	.	(32C#X\LL	.	.	.	.	.	.	.	.	.	.	.	.	.	.	.	.	.	.
.	.	.	.	.	.	.	.	32D\JJJ)	.	.	.	.	.	.	.	.	.	.	.	.	.	.	.	.	.	.
!	!	!	!	!	!	!	!	!LO:LB:g=original	!	!	!	!	!	!	!	!	!	!	!	!	!	!	!	!	!	!
=11	=11	=11	=11	=11	=11	=11	=11	=11	=11	=11	=11	=11	=11	=11	=11	=11	=11	=11	=11	=11	=11	=11	=11	=11	=11	=11
!	!	!	!	!	!	!	!LO:HP:t=cres&colon;	!	!	!	!	!	!	!	!	!	!	!	!	!	!	!	!	!	!LO:TX:a:i:t=Solo.	!
4GG/	.	4B-/	.	4g/	.	4g/	<	4GG/	-bis	.	2.r	.	.	2.r	.	.	2.r	.	2.r	.	2.r	.	2.r	.	8G/L	.
.	.	.	.	.	.	.	.	.	.	.	.	.	.	.	.	.	.	.	.	.	.	.	.	.	8g/J	.
4G\	.	4A/	.	4d 4B-/	.	4g/	.	4r	.	.	.	.	.	.	.	.	.	.	.	.	.	.	.	.	(8b-\L	.
.	.	.	.	.	.	.	.	.	.	.	.	.	.	.	.	.	.	.	.	.	.	.	.	.	8dd\	.
4r	.	4r	.	4r	.	4r	.	4r	.	.	.	.	.	.	.	.	.	.	.	.	.	.	.	.	8gg\	.
.	.	.	.	.	.	.	.	.	.	.	.	.	.	.	.	.	.	.	.	.	.	.	.	.	8bb-\J)	.
!LO:LB:g=original	!	!LO:LB:g=original	!	!	!	!LO:LB:g=original	!	!	!	!	!	!	!	!	!	!	!	!	!	!	!	!	!	!	!	!
=12	=12	=12	=12	=12	=12	=12	=12	=12	=12	=12	=12	=12	=12	=12	=12	=12	=12	=12	=12	=12	=12	=12	=12	=12	=12	=12
!	!	!	!	!	!	!	!	!LO:TX:a:t=15	!	!	!	!	!	!	!	!	!	!	!	!	!	!	!	!	!	!
!	!	!	!	!	!	!	!LO:DY:t=rf	!LO:TX:b:t=15.	!	!	!	!	!	!	!	!	!	!	!	!	!	!	!	!	!	!
4F\	.	4G/	.	4d 4B-/	.	4a-X/	rfz	2.r	.	.	2.r	.	.	2.r	.	.	2.r	.	2.r	.	2.r	.	2.r	.	(16aa-X\LL	.
.	.	.	.	.	.	.	.	.	.	.	.	.	.	.	.	.	.	.	.	.	.	.	.	.	16gg\	.
.	.	.	.	.	.	.	.	.	.	.	.	.	.	.	.	.	.	.	.	.	.	.	.	.	16ff\	.
.	.	.	.	.	.	.	.	.	.	.	.	.	.	.	.	.	.	.	.	.	.	.	.	.	16ee-\JJ)	.
!	!	!	!	!	!	!	!LO:DY:t=rf	!	!	!	!	!	!	!	!	!	!	!	!	!	!	!	!	!	!	!
4BB-/	.	4d\	.	4d 4B-/	.	4a-/	rfz	.	.	.	.	.	.	.	.	.	.	.	.	.	.	.	.	.	(16dd\LL	.
.	.	.	.	.	.	.	.	.	.	.	.	.	.	.	.	.	.	.	.	.	.	.	.	.	16ee-\	.
.	.	.	.	.	.	.	.	.	.	.	.	.	.	.	.	.	.	.	.	.	.	.	.	.	16ff\	.
.	.	.	.	.	.	.	.	.	.	.	.	.	.	.	.	.	.	.	.	.	.	.	.	.	16gg\JJ)	.
4r	.	4r	.	4r	.	4r	.	.	.	.	.	.	.	.	.	.	.	.	.	.	.	.	.	.	(16aa-\LL	.
.	.	.	.	.	.	.	.	.	.	.	.	.	.	.	.	.	.	.	.	.	.	.	.	.	16ff\	.
.	.	.	.	.	.	.	.	.	.	.	.	.	.	.	.	.	.	.	.	.	.	.	.	.	16ee-\	.
.	.	.	.	.	.	.	.	.	.	.	.	.	.	.	.	.	.	.	.	.	.	.	.	.	16cc\JJ)	.
=13	=13	=13	=13	=13	=13	=13	=13	=13	=13	=13	=13	=13	=13	=13	=13	=13	=13	=13	=13	=13	=13	=13	=13	=13	=13	=13
*	*	*	*	*	*	*	*	*	*	*	*	*	*	*2\right	*	*	*	*	*	*	*	*	*	*	*	*
!LO:TX:t=P:problem=mixed beam	!	!LO:TX:t=P:problem=mixed beam	!	!	!LO:DY:t=f	!	!	!	!	!	!	!	!	!LO:TX:a:i:rj:t=Solo.	!	!	!	!	!	!	!	!	!	!	!	!
8EE-/L	.	8e-\L	fp	8e-/L	.	8g/L	f	2.r	.	.	2.r	.	.	2b-\	A-	.	2.r	.	2.r	.	2.r	.	2.r	.	4ee-\	.
8E-\J	f	8E-/J	.	8B-/J	.	8g/	p	.	.	.	.	.	.	.	.	.	.	.	.	.	.	.	.	.	.	.
*tremolo	*	*tremolo	*	*tremolo	*	*	*	*	*	*	*	*	*	*	*	*	*	*	*	*	*	*	*	*	*	*
8E-\L	p	8E-/L	.	8B-/L	.	8g/	.	.	.	.	.	.	.	.	.	.	.	.	.	.	.	.	.	.	4r	.
8E-\	.	8E-/	.	8B-/	.	8g/	.	.	.	.	.	.	.	.	.	.	.	.	.	.	.	.	.	.	.	.
8E-\	.	8E-/	.	8B-/	.	8g/	.	.	.	.	.	.	.	4g\	-gnus	.	.	.	.	.	.	.	.	.	4r	.
8E-\J	.	8E-/J	.	8B-/J	.	8g/J	.	.	.	.	.	.	.	.	.	.	.	.	.	.	.	.	.	.	.	.
*Xtremolo	*	*Xtremolo	*	*Xtremolo	*	*	*	*	*	*	*	*	*	*	*	*	*	*	*	*	*	*	*	*	*	*
=14	=14	=14	=14	=14	=14	=14	=14	=14	=14	=14	=14	=14	=14	=14	=14	=14	=14	=14	=14	=14	=14	=14	=14	=14	=14	=14
!	!	!	!	!	!	!	!	!	!	!	!	!	!	!	!	!	!	!	!	!	!	!	!	!	!LO:TX:b:t=13..	!
!	!	!	!	!	!	!	!	!	!	!	!	!	!	!	!	!	!	!	!	!	!	!	!	!	!LO:TX:a:t=13.	!
8r	.	8r	.	8r	.	8r	.	2.r	.	.	2.r	.	.	8f\L	De-	.	2.r	.	2.r	.	2.r	.	2.r	.	2.r	.
!	!	!	!	!	!	!	!	!	!	!	!	!	!	!LO:SIC:v:s=8e-\J	!	!	!	!	!	!	!	!	!	!	!	!
8E-\	.	8e-\	.	8B-/	.	8g/L	.	.	.	.	.	.	.	8e\J	.	.	.	.	.	.	.	.	.	.	.	.
*tremolo	*	*tremolo	*	*tremolo	*	*	*	*	*	*	*	*	*	*	*	*	*	*	*	*	*	*	*	*	*	*
!	!	!	!	!	!	!	!	!	!	!	!	!	!	!LO:SIC:v:s=4e-\	!	!	!	!	!	!	!	!	!	!	!	!
8E-\L	.	8e-\L	.	8B-/L	.	8g/	.	.	.	.	.	.	.	4e\	-i	.	.	.	.	.	.	.	.	.	.	.
8E-\	.	8e-\	.	8B-/	.	8g/	.	.	.	.	.	.	.	.	.	.	.	.	.	.	.	.	.	.	.	.
8E-\	.	8e-\	.	8B-/	.	8g/	.	.	.	.	.	.	.	8r	.	.	.	.	.	.	.	.	.	.	.	.
8E-\J	.	8e-\J	.	8B-/J	.	8g/J	.	.	.	.	.	.	.	16r	.	.	.	.	.	.	.	.	.	.	.	.
.	.	.	.	.	.	.	.	.	.	.	.	.	.	16g\	qui	.	.	.	.	.	.	.	.	.	.	.
*Xtremolo	*	*Xtremolo	*	*Xtremolo	*	*	*	*	*	*	*	*	*	*	*	*	*	*	*	*	*	*	*	*	*	*
!	!	!	!	!LO:LB:g=original	!	!	!	!	!	!	!	!	!	!	!	!	!	!	!	!	!	!	!	!	!	!
=15	=15	=15	=15	=15	=15	=15	=15	=15	=15	=15	=15	=15	=15	=15	=15	=15	=15	=15	=15	=15	=15	=15	=15	=15	=15	=15
8r	.	8r	.	8r	.	8r	.	2.r	.	.	2.r	.	.	(8b-\L	tol-	.	2.r	.	2.r	.	2.r	.	2.r	.	2.r	.
8D\	.	8d\	.	8f/	.	8b-\L	.	.	.	.	.	.	.	8f\J)	.	.	.	.	.	.	.	.	.	.	.	.
*tremolo	*	*tremolo	*	*tremolo	*	*	*	*	*	*	*	*	*	*	*	*	*	*	*	*	*	*	*	*	*	*
8D\L	.	8d\L	.	8f/L	.	8b-\	.	.	.	.	.	.	.	4f\	-lis	.	.	.	.	.	.	.	.	.	.	.
8D\	.	8d\	.	8f/	.	8b-\	.	.	.	.	.	.	.	.	.	.	.	.	.	.	.	.	.	.	.	.
8D\	.	8d\	.	8f/	.	8b-\	.	.	.	.	.	.	.	8r	.	.	.	.	.	.	.	.	.	.	.	.
8D\J	.	8d\J	.	8f/J	.	8b-\J	.	.	.	.	.	.	.	8g\	pec-	.	.	.	.	.	.	.	.	.	.	.
*Xtremolo	*	*Xtremolo	*	*Xtremolo	*	*	*	*	*	*	*	*	*	*	*	*	*	*	*	*	*	*	*	*	*	*
!	!	!	!	!	!	!	!	!	!	!	!	!	!	!LO:LB:g=original	!	!	!	!	!	!	!	!	!	!	!	!
=16	=16	=16	=16	=16	=16	=16	=16	=16	=16	=16	=16	=16	=16	=16	=16	=16	=16	=16	=16	=16	=16	=16	=16	=16	=16	=16
!	!	!LO:N:vis=8	!	!	!	!	!	!	!	!	!	!	!	!	!	!	!	!	!	!	!	!	!	!	!	!
8r	.	16r	.	8r	.	8r	.	2.r	.	.	2.r	.	.	(4.b-X\	-ca-	.	2.r	.	2.r	.	2.r	.	2.r	.	2.r	.
!	!	!LO:N:vis=8	!	!	!	!	!	!	!	!	!	!	!	!	!	!	!	!	!	!	!	!	!	!	!	!
.	.	16c/L	.	.	.	.	.	.	.	.	.	.	.	.	.	.	.	.	.	.	.	.	.	.	.	.
!LO:TX:t=P:problem=mixed beam	!	!	!	!	!	!LO:TX:t=P:problem=mixed beam	!	!	!	!	!	!	!	!	!	!	!	!	!	!	!	!	!	!	!	!
8C/L	.	8c/	.	8e-/L	.	8a-X/L	.	.	.	.	.	.	.	.	.	.	.	.	.	.	.	.	.	.	.	.
*	*	*	*	*tremolo	*	*	*	*	*	*	*	*	*	*	*	*	*	*	*	*	*	*	*	*	*	*
8c\	.	8B-/	.	8e-/	.	8aa-X\	.	.	.	.	.	.	.	.	.	.	.	.	.	.	.	.	.	.	.	.
8B-\	.	8B-/	.	8e-/	.	8gg\	.	.	.	.	.	.	.	8g\L	.	.	.	.	.	.	.	.	.	.	.	.
8A\	.	8A-X/	.	8f/	.	8ff\	.	.	.	.	.	.	.	8f\J)	.	.	.	.	.	.	.	.	.	.	.	.
8An\J	.	8c/J	.	8f/J	.	8ee-\J	.	.	.	.	.	.	.	8e\	-ta	.	.	.	.	.	.	.	.	.	.	.
=17	=17	=17	=17	=17	=17	=17	=17	=17	=17	=17	=17	=17	=17	=17	=17	=17	=17	=17	=17	=17	=17	=17	=17	=17	=17	=17
.	.	.	.	.	.	.	.	.	.	.	.	.	.	8qf/	.	.	.	.	.	.	.	.	.	.	.	.
!	!	!	!	!	!	!	!	!	!	!	!	!	!	!LO:SIC:v:s=(8e-\L	!	!	!	!	!	!	!	!	!	!	!	!
4B-\	.	8r	.	8r	.	8r	.	2.r	.	.	2.r	.	.	(8e\L	mun-	.	2.r	.	2.r	.	2.r	.	2.r	.	2.r	.
.	.	8B-/	.	8g/	.	8ee-\	.	.	.	.	.	.	.	16d\L	.	.	.	.	.	.	.	.	.	.	.	.
!	!	!	!	!	!	!	!	!	!	!	!	!	!	!LO:SIC:v:s=16e-\JJ	!	!	!	!	!	!	!	!	!	!	!	!
.	.	.	.	.	.	.	.	.	.	.	.	.	.	16e\JJ)	.	.	.	.	.	.	.	.	.	.	.	.
*	*	*tremolo	*	*tremolo	*	*	*	*	*	*	*	*	*	*	*	*	*	*	*	*	*	*	*	*	*	*
8BB-/L	f	8B-/L	.	8f/L	.	8dd\L	.	.	.	.	.	.	.	4d\	-di	.	.	.	.	.	.	.	.	.	.	.
8BB-/J	.	8B-/	.	8f/	.	8dd\	.	.	.	.	.	.	.	.	.	.	.	.	.	.	.	.	.	.	.	.
4BB-/	.	8B-/	.	8f/	.	8dd\	.	.	.	.	.	.	.	4r	.	.	.	.	.	.	.	.	.	.	.	.
.	.	8B-/J	.	8f/J	.	8dd\J	.	.	.	.	.	.	.	.	.	.	.	.	.	.	.	.	.	.	.	.
*	*	*Xtremolo	*	*Xtremolo	*	*	*	*	*	*	*	*	*	*	*	*	*	*	*	*	*	*	*	*	*	*
!LO:LB:g=original	!	!	!	!	!	!LO:LB:g=original	!	!	!	!	!	!	!	!	!	!	!	!	!	!	!	!	!	!	!	!
=18	=18	=18	=18	=18	=18	=18	=18	=18	=18	=18	=18	=18	=18	=18	=18	=18	=18	=18	=18	=18	=18	=18	=18	=18	=18	=18
!	!	!	!LO:DY:t=f	!	!	!	!LO:DY:t=f	!	!	!	!	!	!	!	!	!	!	!	!	!	!	!	!	!	!	!
8A\	.	8f\	f	8d/	.	8b-\	f	2.r	.	.	2.r	.	.	2f\	mi-	.	2.r	.	2.r	.	2.r	.	2.r	.	2.r	.
8r	.	4f\	p	4d/	.	4b-\	p	.	.	.	.	.	.	.	.	.	.	.	.	.	.	.	.	.	.	.
8A\	.	.	.	.	.	.	.	.	.	.	.	.	.	.	.	.	.	.	.	.	.	.	.	.	.	.
8r	.	4f\	.	4d/	.	4b-\	.	.	.	.	.	.	.	.	.	.	.	.	.	.	.	.	.	.	.	.
.	.	.	.	.	.	.	.	.	.	.	.	.	.	(<32qqg/LLL	.	.	.	.	.	.	.	.	.	.	.	.
.	.	.	.	.	.	.	.	.	.	.	.	.	.	32qqf/	.	.	.	.	.	.	.	.	.	.	.	.
.	.	.	.	.	.	.	.	.	.	.	.	.	.	32qqen/	.	.	.	.	.	.	.	.	.	.	.	.
.	.	.	.	.	.	.	.	.	.	.	.	.	.	32qqf/JJJ	.	.	.	.	.	.	.	.	.	.	.	.
8A\	.	.	.	.	.	.	.	.	.	.	.	.	.	8b-X\)	.	.	.	.	.	.	.	.	.	.	.	.
8r	.	8f\	.	8d/	.	[8b-\	.	.	.	.	.	.	.	8d\	-se-	.	.	.	.	.	.	.	.	.	.	.
!	!	!LO:LB:g=original	!	!	!	!	!	!	!	!	!	!	!	!	!	!	!	!	!	!	!	!	!	!	!	!
=19	=19	=19	=19	=19	=19	=19	=19	=19	=19	=19	=19	=19	=19	=19	=19	=19	=19	=19	=19	=19	=19	=19	=19	=19	=19	=19
!	!	!	!	!	!	!	!LO:DY:t=f	!	!	!	!	!	!	!	!	!	!	!	!	!	!	!	!	!	!	!
8G\	.	8g\	.	8e-/	.	8b-\]	f	2.r	.	.	2.r	.	.	8f\L	-re-	.	2.r	.	2.r	.	2.r	.	2.r	.	2.r	.
!	!	!	!	!	!	!	!LO:DY:t=p&colon;	!	!	!	!	!	!	!LO:SIC:v:s=8e-\J	!	!	!	!	!	!	!	!	!	!	!	!
8r	.	4G/	.	4e-/	.	4b-\	p	.	.	.	.	.	.	8e\J	.	.	.	.	.	.	.	.	.	.	.	.
!	!	!	!	!	!	!	!	!	!	!	!	!	!	!LO:SIC:v:s=4e-\	!	!	!	!	!	!	!	!	!	!	!	!
8G\	.	.	.	.	.	.	.	.	.	.	.	.	.	4e\	-re	.	.	.	.	.	.	.	.	.	.	.
8r	.	4G/	.	4e-/	.	4b-\	.	.	.	.	.	.	.	.	.	.	.	.	.	.	.	.	.	.	.	.
8G\	.	.	.	.	.	.	.	.	.	.	.	.	.	4r	.	.	.	.	.	.	.	.	.	.	.	.
8r	.	8G/	.	8e-/	.	8b-\	.	.	.	.	.	.	.	.	.	.	.	.	.	.	.	.	.	.	.	.
=20	=20	=20	=20	=20	=20	=20	=20	=20	=20	=20	=20	=20	=20	=20	=20	=20	=20	=20	=20	=20	=20	=20	=20	=20	=20	=20
8B-\	.	8G/	.	8en/	.	8cc\	fp	2.r	.	.	2.r	.	.	2g\	mi-	.	2.r	.	2.r	.	2.r	.	2.r	.	2.r	.
8r	.	4g\	.	4e/	.	4cc\	.	.	.	.	.	.	.	.	.	.	.	.	.	.	.	.	.	.	.	.
8B-\	.	.	.	.	.	.	.	.	.	.	.	.	.	.	.	.	.	.	.	.	.	.	.	.	.	.
8r	.	4g\	.	4e/	.	4cc\	.	.	.	.	.	.	.	.	.	.	.	.	.	.	.	.	.	.	.	.
.	.	.	.	.	.	.	.	.	.	.	.	.	.	(<32qqa/LLL	.	.	.	.	.	.	.	.	.	.	.	.
.	.	.	.	.	.	.	.	.	.	.	.	.	.	32qqg/	.	.	.	.	.	.	.	.	.	.	.	.
.	.	.	.	.	.	.	.	.	.	.	.	.	.	32qqf#X/	.	.	.	.	.	.	.	.	.	.	.	.
.	.	.	.	.	.	.	.	.	.	.	.	.	.	32qqg/JJJ	.	.	.	.	.	.	.	.	.	.	.	.
8B-\	.	.	.	.	.	.	.	.	.	.	.	.	.	8b-\L)	-se-	.	.	.	.	.	.	.	.	.	.	.
8r	.	8g\	.	8e/	.	[8cc\	.	.	.	.	.	.	.	8en\J	.	.	.	.	.	.	.	.	.	.	.	.
!	!	!	!	!	!	!	!	!	!	!	!	!	!	!LO:LB:g=original	!	!	!	!	!	!	!	!	!	!	!	!
=21	=21	=21	=21	=21	=21	=21	=21	=21	=21	=21	=21	=21	=21	=21	=21	=21	=21	=21	=21	=21	=21	=21	=21	=21	=21	=21
8An\	.	8an\	.	8f/	.	8cc\]	.	2.r	.	.	2.r	.	.	8g\L	-re-	.	2.r	.	2.r	.	2.r	.	2.r	.	2.r	.
8r	.	4A/	.	4f/	.	4cc\	.	.	.	.	.	.	.	8f\J	.	.	.	.	.	.	.	.	.	.	.	.
8AA/	.	.	.	.	.	.	.	.	.	.	.	.	.	4f\	-re	.	.	.	.	.	.	.	.	.	.	.
8r	.	4A/	.	4f/	.	4cc\	.	.	.	.	.	.	.	.	.	.	.	.	.	.	.	.	.	.	.	.
8AA/	.	.	.	.	.	.	.	.	.	.	.	.	.	4r	.	.	.	.	.	.	.	.	.	.	.	.
8r	.	8A/	.	8f/	.	8cc\	.	.	.	.	.	.	.	.	.	.	.	.	.	.	.	.	.	.	.	.
=22	=22	=22	=22	=22	=22	=22	=22	=22	=22	=22	=22	=22	=22	=22	=22	=22	=22	=22	=22	=22	=22	=22	=22	=22	=22	=22
8C\	.	8A/	.	8f#X/	.	8cc\	fp	2.r	.	.	2.r	.	.	2a\	mi-	.	2.r	.	2.r	.	2.r	.	2.r	.	2.r	.
8r	.	4d\	.	4a/	.	4ff#X\	.	.	.	.	.	.	.	.	.	.	.	.	.	.	.	.	.	.	.	.
8C\	.	.	.	.	.	.	.	.	.	.	.	.	.	.	.	.	.	.	.	.	.	.	.	.	.	.
8r	.	4d\	.	4a/	.	4ff#\	.	.	.	.	.	.	.	.	.	.	.	.	.	.	.	.	.	.	.	.
.	.	.	.	.	.	.	.	.	.	.	.	.	.	(<32qqb-/LLL	.	.	.	.	.	.	.	.	.	.	.	.
.	.	.	.	.	.	.	.	.	.	.	.	.	.	32qqa/	.	.	.	.	.	.	.	.	.	.	.	.
.	.	.	.	.	.	.	.	.	.	.	.	.	.	32qqg#X/	.	.	.	.	.	.	.	.	.	.	.	.
.	.	.	.	.	.	.	.	.	.	.	.	.	.	32qqa/JJJ)	.	.	.	.	.	.	.	.	.	.	.	.
8C\	.	.	.	.	.	.	.	.	.	.	.	.	.	8dd\	.	.	.	.	.	.	.	.	.	.	.	.
8r	.	8d\	.	8a/	.	8ff#\	.	.	.	.	.	.	.	8f#X\	-se-	.	.	.	.	.	.	.	.	.	.	.
!LO:LB:g=original	!	!	!	!LO:LB:g=original	!	!	!	!	!	!	!	!	!	!	!	!	!	!	!	!	!	!	!	!	!	!
=23	=23	=23	=23	=23	=23	=23	=23	=23	=23	=23	=23	=23	=23	=23	=23	=23	=23	=23	=23	=23	=23	=23	=23	=23	=23	=23
8BB-\	.	8B-/	.	8g/	.	8gg\	.	2.r	.	.	2.r	.	.	8a\L	-re-	.	2.r	.	2.r	.	2.r	.	2.r	.	2.r	.
8r	.	4B-/	.	4g/	.	4dd\	.	.	.	.	.	.	.	8g\J	.	.	.	.	.	.	.	.	.	.	.	.
8B-\	.	.	.	.	.	.	.	.	.	.	.	.	.	4g\	-re	.	.	.	.	.	.	.	.	.	.	.
!	!	!	!	!LO:N:vis=4.	!	!	!	!	!	!	!	!	!	!	!	!	!	!	!	!	!	!	!	!	!	!
8r	.	4B-/	.	4b-/	.	4dd\	.	.	.	.	.	.	.	.	.	.	.	.	.	.	.	.	.	.	.	.
8G\	.	.	.	.	.	.	.	.	.	.	.	.	.	4r	.	.	.	.	.	.	.	.	.	.	.	.
8r	.	8G/	.	8b-/	.	8dd\	.	.	.	.	.	.	.	.	.	.	.	.	.	.	.	.	.	.	.	.
!	!	!	!	!	!	!LO:LB:g=original	!	!	!	!	!	!	!	!	!	!	!	!	!	!	!	!	!	!	!	!
=24	=24	=24	=24	=24	=24	=24	=24	=24	=24	=24	=24	=24	=24	=24	=24	=24	=24	=24	=24	=24	=24	=24	=24	=24	=24	=24
8E-\	.	8g\	.	8b-/	.	8gg\	.	2.r	.	.	2.r	.	.	2g\	no-	.	2.r	.	2.r	.	2.r	.	2.r	.	2.r	.
8r	.	4g\	.	4b-/	.	4cc#X\	.	.	.	.	.	.	.	.	.	.	.	.	.	.	.	.	.	.	.	.
8E-\	.	.	.	.	.	.	.	.	.	.	.	.	.	.	.	.	.	.	.	.	.	.	.	.	.	.
!	!	!	!	!LO:N:vis=4.	!	!	!	!	!	!	!	!	!	!	!	!	!	!	!	!	!	!	!	!	!	!
8r	.	4E-/	.	4g/	.	4cc#\	.	.	.	.	.	.	.	.	.	.	.	.	.	.	.	.	.	.	.	.
.	.	.	.	.	.	.	.	.	.	.	.	.	.	(<32qqa/LLL	.	.	.	.	.	.	.	.	.	.	.	.
.	.	.	.	.	.	.	.	.	.	.	.	.	.	32qqg/	.	.	.	.	.	.	.	.	.	.	.	.
.	.	.	.	.	.	.	.	.	.	.	.	.	.	32qqf#X/	.	.	.	.	.	.	.	.	.	.	.	.
.	.	.	.	.	.	.	.	.	.	.	.	.	.	32qqg/JJJ)	.	.	.	.	.	.	.	.	.	.	.	.
8E-\	.	.	.	.	.	.	.	.	.	.	.	.	.	(8a\L	.	.	.	.	.	.	.	.	.	.	.	.
8r	.	8E-/	.	8g/	.	8cc#\	.	.	.	.	.	.	.	8g\J)	.	.	.	.	.	.	.	.	.	.	.	.
=25	=25	=25	=25	=25	=25	=25	=25	=25	=25	=25	=25	=25	=25	=25	=25	=25	=25	=25	=25	=25	=25	=25	=25	=25	=25	=25
!	!	!	!	!	!	!LO:TX:t=P:problem=mixed beam	!	!	!	!	!	!	!	!	!	!	!	!	!	!	!	!	!	!	!	!
4D\	.	8E-/L	f	8f#X/L	f	8dd\L	.	2.r	.	.	2.r	.	.	4f#X\	-bis	.	2.r	.	2.r	.	2.r	.	2.r	.	2.r	.
.	.	8D/	.	8d/	.	8d/	.	.	.	.	.	.	.	.	.	.	.	.	.	.	.	.	.	.	.	.
4D\	.	8F#X/	.	8f#/	.	8f#X/	.	.	.	.	.	.	.	4r	.	.	.	.	.	.	.	.	.	.	.	.
!	!	!	!	!LO:TX:t=P:problem=dźwięk dopisany na niebiesko	!	!	!	!	!	!	!	!	!	!	!	!	!	!	!	!	!	!	!	!	!	!
.	.	8A/	.	8a/	.	8d/	.	.	.	.	.	.	.	.	.	.	.	.	.	.	.	.	.	.	.	.
8r	.	8d/	.	8dd/	.	8f#/	.	.	.	.	.	.	.	4r	.	.	.	.	.	.	.	.	.	.	.	.
8E-\	.	8g/J	.	8cc#X/J	.	8a/J	.	.	.	.	.	.	.	.	.	.	.	.	.	.	.	.	.	.	.	.
!	!	!LO:LB:g=original	!	!	!	!	!	!	!	!	!	!	!	!	!	!	!	!	!	!	!	!	!	!	!	!
=26	=26	=26	=26	=26	=26	=26	=26	=26	=26	=26	=26	=26	=26	=26	=26	=26	=26	=26	=26	=26	=26	=26	=26	=26	=26	=26
!	!	!	!	!	!	!	!	!	!	!	!	!	!	!LO:TX:a:t=1.	!	!	!	!	!	!	!	!	!	!	!	!
8D/L	f	8f#X\L	.	4dd\	.	4dd\	.	2.r	.	.	2.r	.	.	2.r	.	.	2.r	.	2.r	.	2.r	.	2.r	.	2.r	.
8C#X/	.	8c#X\	.	.	.	.	.	.	.	.	.	.	.	.	.	.	.	.	.	.	.	.	.	.	.	.
8D/	.	8d\	.	4d/	.	4d/	.	.	.	.	.	.	.	.	.	.	.	.	.	.	.	.	.	.	.	.
8Cn/	.	8cn\	.	.	.	.	.	.	.	.	.	.	.	.	.	.	.	.	.	.	.	.	.	.	.	.
8BB-/	.	8B-\	.	4r	.	4r	.	.	.	.	.	.	.	.	.	.	.	.	.	.	.	.	.	.	.	.
8AA/J	.	8A\J	.	.	.	.	.	.	.	.	.	.	.	.	.	.	.	.	.	.	.	.	.	.	.	.
!	!	!	!	!	!	!	!	!	!	!	!	!	!	!LO:LB:g=original	!	!	!	!	!	!	!	!	!	!	!	!
=27	=27	=27	=27	=27	=27	=27	=27	=27	=27	=27	=27	=27	=27	=27	=27	=27	=27	=27	=27	=27	=27	=27	=27	=27	=27	=27
*	*	*	*	*tremolo	*	*	*	*	*	*	*2\right	*	*	*	*	*	*2\right	*	*2\right	*	*2\right	*	*2\right	*	*2\right	*
!LO:TX:t=P:problem=mixed beam	!	!LO:TX:t=P:problem=mixed beam	!	!	!LO:DY:a	!LO:TX:a:i:t=Tu&colon;	!	!LO:TX:a:t=T.	!	!	!LO:TX:a:i:t=Tutti	!	!	!LO:TX:a:i:t=Tutti	!	!	!LO:TX:a:i:t=Tutti.	!	!	!	!	!	!	!	!LO:TX:a:i:t=Tutti.	!
8GG/L	.	8G/L	.	8dL 8B-/	fp	16g/LL	.	2G\	A-	.	2d\	A-	.	2g\	A-	.	2b-\	A-	2g\	f	2g\	f	2b-\	f	2dd\	f
.	.	.	.	.	.	16d/	.	.	.	.	.	.	.	.	.	.	.	.	.	.	.	.	.	.	.	.
8G\J	.	8g\J	.	8d 8B-/	.	16en/	.	.	.	.	.	.	.	.	.	.	.	.	.	.	.	.	.	.	.	.
.	.	.	.	.	.	16f#X/JJ	.	.	.	.	.	.	.	.	.	.	.	.	.	.	.	.	.	.	.	.
*tremolo	*	*tremolo	*	*	*	*	*	*	*	*	*	*	*	*	*	*	*	*	*	*	*	*	*	*	*	*
8G\L	.	8g\L	.	8d 8B-/	.	16g\LL	.	.	.	f	.	.	.	.	.	.	.	.	.	.	.	.	.	.	.	.
.	.	.	.	.	.	16a\	.	.	.	.	.	.	.	.	.	.	.	.	.	.	.	.	.	.	.	.
8G\	.	8g\	.	8d 8B-/	.	16b-\	.	.	.	.	.	.	.	.	.	.	.	.	.	.	.	.	.	.	.	.
.	.	.	.	.	.	16cc\JJ	.	.	.	.	.	.	.	.	.	.	.	.	.	.	.	.	.	.	.	.
8G\	.	8g\	.	8d 8B-/	.	16dd\LL	.	4G\	-gnus	.	4d\	-gnus	f	4g\	-gnus	f	4b-\	-gnus	4g\	.	4g\	.	4b-\	.	8dd\L	.
.	.	.	.	.	.	16ff\	.	.	.	.	.	.	.	.	.	.	.	.	.	.	.	.	.	.	.	.
8G\J	.	8g\J	.	8dJ 8B-/	.	16gg\	.	.	.	.	.	.	.	.	.	.	.	.	.	.	.	.	.	.	8gg\J	.
.	.	.	.	.	.	16aa\JJ	.	.	.	.	.	.	.	.	.	.	.	.	.	.	.	.	.	.	.	.
*Xtremolo	*	*Xtremolo	*	*	*	*	*	*	*	*	*	*	*	*	*	*	*	*	*	*	*	*	*	*	*	*
!	!	!	!	!	!	!	!	!	!	!	!	!	!	!	!	!	!	!	!	!	!	!	!	!	!LO:LB:g=original	!
=28	=28	=28	=28	=28	=28	=28	=28	=28	=28	=28	=28	=28	=28	=28	=28	=28	=28	=28	=28	=28	=28	=28	=28	=28	=28	=28
!LO:TX:t=P:problem=mixed beam	!	!LO:TX:t=P:problem=mixed beam	!	!	!	!	!	!	!	!	!	!	!	!	!	!	!	!	!	!	!	!	!	!	!	!
8GG/L	.	8G/L	.	8b-L 8d/	.	16bb-\LL	.	4G\	De-	.	4d\	De-	.	8b-\L	De-	.	8dd\L	De-	4g\	.	4g\	.	8dd\L	.	(8bb-\L	.
.	.	.	.	.	.	16ff#X\	.	.	.	.	.	.	.	.	.	.	.	.	.	.	.	.	.	.	.	.
8G\J	.	8g\J	.	8b- 8d/	.	16gg\	.	.	.	.	.	.	.	8g\J	.	.	8b-\J	.	.	.	.	.	8b-\J	.	8gg\)	.
.	.	.	.	.	.	16aa\JJ	.	.	.	.	.	.	.	.	.	.	.	.	.	.	.	.	.	.	.	.
*tremolo	*	*tremolo	*	*	*	*	*	*	*	*	*	*	*	*	*	*	*	*	*tremolo	*	*tremolo	*	*tremolo	*	*	*
8G\L	.	8g\L	.	8b- 8d/	.	16bb-\LL	.	4G\	-i	.	4d\	-i	.	4g\	-i	.	4b-\	-i	8g\L	.	8g\L	.	8b-\L	.	8gg\	.
.	.	.	.	.	.	16dd\	.	.	.	.	.	.	.	.	.	.	.	.	.	.	.	.	.	.	.	.
8G\	.	8g\	.	8b- 8d/	.	16gg\	.	.	.	.	.	.	.	.	.	.	.	.	8g\	.	8g\	.	8b-\	.	8dd\	.
.	.	.	.	.	.	16bb-\JJ	.	.	.	.	.	.	.	.	.	.	.	.	.	.	.	.	.	.	.	.
8G\	.	8g\	.	8b- 8d/	.	16ddd\LL	.	8r	.	.	8r	.	.	8r	.	.	8r	.	8g\	.	8g\	.	8b-\	.	8dd\	.
.	.	.	.	.	.	16bb-\	.	.	.	.	.	.	.	.	.	.	.	.	.	.	.	.	.	.	.	.
8G\J	.	8g\J	.	8b-J 8d/	.	16aa\	.	8G\	qui	.	8d\	qui	.	8g\	qui	.	8b-\	qui	8g\J	.	8g\J	.	8b-\J	.	8dd\J	.
.	.	.	.	.	.	16gg\JJ	.	.	.	.	.	.	.	.	.	.	.	.	.	.	.	.	.	.	.	.
*	*	*	*	*	*	*	*	*	*	*	*	*	*	*	*	*	*	*	*Xtremolo	*	*Xtremolo	*	*Xtremolo	*	*	*
!	!	!	!	!	!	!LO:LB:g=original	!	!	!	!	!	!	!	!	!	!	!	!	!	!	!	!	!	!	!	!
=29	=29	=29	=29	=29	=29	=29	=29	=29	=29	=29	=29	=29	=29	=29	=29	=29	=29	=29	=29	=29	=29	=29	=29	=29	=29	=29
8BBn/L	.	8d\L	.	8g/L	.	8ffn\	.	4BBn/	tol-	.	4G/	tol-	.	4g\	tol-	.	4dd\	tol-	2.g\	.	2.g\	.	2.dd\	.	2.ff\	.
8BB/	.	8d\	.	8g/	.	4ddd\	.	.	.	.	.	.	.	.	.	.	.	.	.	.	.	.	.	.	.	.
8BB/	.	8d\	.	8g/	.	.	.	4.BB/	-lis	.	4.G/	-lis	.	4.g\	-lis	.	4.dd\	-lis	.	.	.	.	.	.	.	.
!	!	!	!	!	!	!	!LO:DY:t=sf.	!	!	!	!	!	!	!	!	!	!	!	!	!	!	!	!	!	!	!
8BB/	.	8d\	.	8g/	.	8bbn\	sf	.	.	.	.	.	.	.	.	.	.	.	.	.	.	.	.	.	.	.
8BB/	.	8d\	.	8g/	.	8gg\L	.	.	.	.	.	.	.	.	.	.	.	.	.	.	.	.	.	.	.	.
8BB/J	.	8d\J	.	8g/J	.	8ff\J	.	8BB/	pec-	.	8G/	pec-	.	8g\	pec-	.	8dd\	pe-	.	.	.	.	.	.	.	.
!	!	!	!	!	!	!	!	!	!	!	!	!	!	!	!	!	!	!	!	!	!	!	!LO:LB:g=original	!	!	!
=30	=30	=30	=30	=30	=30	=30	=30	=30	=30	=30	=30	=30	=30	=30	=30	=30	=30	=30	=30	=30	=30	=30	=30	=30	=30	=30
*	*	*	*	*	*	*	*	*	*	*	*	*	*	*	*	*	*	*	*tremolo	*	*	*	*	*	*	*
!	!	!	!	!	!	!	!	!	!	!	!	!	!	!	!	!	!LO:SIC:v:s=4ee-\	!	!LO:N:TREM:vis=2..	!	!	!	!	!	!	!
8C/L	.	8e-L 8c\	.	8g/L	.	16ee-\LL	.	4C/	-ca-	.	4c\	-ca-	.	4g\	-ca-	.	4ee\	-ca-	8g\L	.	2.g\	.	2.cc\	.	2.ee-X\	.
.	.	.	.	.	.	16dd\	.	.	.	.	.	.	.	.	.	.	.	.	.	.	.	.	.	.	.	.
8C/	.	8e- 8c\	.	8g/	.	16ee-\	.	.	.	.	.	.	.	.	.	.	.	.	8g\	.	.	.	.	.	.	.
.	.	.	.	.	.	16ff\JJ	.	.	.	.	.	.	.	.	.	.	.	.	.	.	.	.	.	.	.	.
8C/	.	8e- 8c\	.	8g/	.	16gg\LL	.	4C/	-ta	.	4G/	-ta	.	4e\	-ta	.	4cc\	-ta	8g\	.	.	.	.	.	.	.
.	.	.	.	.	.	16ee-\	.	.	.	.	.	.	.	.	.	.	.	.	.	.	.	.	.	.	.	.
8C/	.	8e- 8c\	.	8g/	.	16dd\	.	.	.	.	.	.	.	.	.	.	.	.	8g\	.	.	.	.	.	.	.
.	.	.	.	.	.	16cc\JJ	.	.	.	.	.	.	.	.	.	.	.	.	.	.	.	.	.	.	.	.
8C/	.	8e- 8c\	.	8g/	.	16gg\LL	.	8r	.	.	8r	.	.	8r	.	.	8r	.	8g\	.	.	.	.	.	.	.
.	.	.	.	.	.	16ee-\	.	.	.	.	.	.	.	.	.	.	.	.	.	.	.	.	.	.	.	.
8C/J	.	8e-J 8c\	.	8g/J	.	16dd\	.	8c\	pec-	.	8c\	pec-	.	8e\	pec-	.	8cc\	pec-	8g\J	.	.	.	.	.	.	.
.	.	.	.	.	.	16cc\JJ	.	.	.	.	.	.	.	.	.	.	.	.	.	.	.	.	.	.	.	.
*	*	*	*	*	*	*	*	*	*	*	*	*	*	*	*	*	*	*	*Xtremolo	*	*	*	*	*	*	*
!	!	!	!	!	!	!	!	!	!	!	!LO:LB:g=original	!	!	!	!	!	!LO:LB:g=original	!	!	!	!	!	!	!	!	!
=31	=31	=31	=31	=31	=31	=31	=31	=31	=31	=31	=31	=31	=31	=31	=31	=31	=31	=31	=31	=31	=31	=31	=31	=31	=31	=31
8A\L	.	8e-L 8c\	.	8f/L	.	16ff\LL	.	2A\	-ca-	.	2c\	-ca-	.	2f\	-ca-	.	2ee-X\	-ca-	2.F/	.	2.f\	.	2.cc\	.	2.ee-\	.
.	.	.	.	.	.	16aa\JJ	.	.	.	.	.	.	.	.	.	.	.	.	.	.	.	.	.	.	.	.
8A\	.	8e- 8c\	.	8f/	.	4ccc\	sf	.	.	.	.	.	.	.	.	.	.	.	.	.	.	.	.	.	.	.
8A\	.	8e- 8c\	.	8f/	.	.	.	.	.	.	.	.	.	.	.	.	.	.	.	.	.	.	.	.	.	.
8A\	.	8e- 8c\	.	8f/	.	8aa\L	.	.	.	.	.	.	.	.	.	.	.	.	.	.	.	.	.	.	.	.
8A\	.	8e- 8c\	.	8f/	.	8ff\	.	4A\	-ta	.	4c\	-ta	.	4f\	-ta	.	4ee-\	-ta	.	.	.	.	.	.	.	.
8A\J	.	8e-J 8c\	.	8f/J	.	8ee-\J	.	.	.	.	.	.	.	.	.	.	.	.	.	.	.	.	.	.	.	.
*Xtremolo	*	*	*	*	*	*	*	*	*	*	*	*	*	*	*	*	*	*	*	*	*	*	*	*	*	*
!	!	!	!	!LO:LB:g=original	!	!	!	!LO:LB:g=original	!	!	!	!	!	!	!	!	!	!	!	!	!	!	!	!	!	!
=32	=32	=32	=32	=32	=32	=32	=32	=32	=32	=32	=32	=32	=32	=32	=32	=32	=32	=32	=32	=32	=32	=32	=32	=32	=32	=32
!LO:TX:t=P:problem=mixed beam	!	!LO:SIC:v:s=8d 8B\	!	!	!	!	!	!	!	!	!	!	!	!	!	!	!	!	!	!	!	!	!	!	!	!
8B-\L	.	8e-L 8c\	.	8f/L	.	16dd\LL	.	4B-\	mun-	.	4B-\	mun-	.	4f\	mun-	.	4dd\	mun-	2.F/	.	2.f\	.	2.b-\	.	2.dd\	.
.	.	.	.	.	.	16ee-\	.	.	.	.	.	.	.	.	.	.	.	.	.	.	.	.	.	.	.	.
!	!	!LO:SIC:v:s=8d 8B\	!	!	!	!	!	!	!	!	!	!	!	!	!	!	!	!	!	!	!	!	!	!	!	!
8BB-/	.	8e- 8c\	.	8f/	.	16cc\	.	.	.	.	.	.	.	.	.	.	.	.	.	.	.	.	.	.	.	.
.	.	.	.	.	.	16ee-\JJ	.	.	.	.	.	.	.	.	.	.	.	.	.	.	.	.	.	.	.	.
!	!	!LO:SIC:v:s=8d 8B\	!	!	!	!	!	!	!	!	!	!	!	!	!	!	!	!	!	!	!	!	!	!	!	!
8BB-/	.	8e- 8c\	.	8f/	.	16b-\LL	.	4BB-/	-di	.	4B-\	-di	.	4f\	-di	.	4dd\	-di	.	.	.	.	.	.	.	.
.	.	.	.	.	.	16cc\	.	.	.	.	.	.	.	.	.	.	.	.	.	.	.	.	.	.	.	.
!	!	!LO:SIC:v:s=8d 8B\	!	!	!	!	!	!	!	!	!	!	!	!	!	!	!	!	!	!	!	!	!	!	!	!
8BB-/	.	8e- 8c\	.	8f/J	.	16dd\	.	.	.	.	.	.	.	.	.	.	.	.	.	.	.	.	.	.	.	.
.	.	.	.	.	.	16ee-\JJ	.	.	.	.	.	.	.	.	.	.	.	.	.	.	.	.	.	.	.	.
*	*	*	*	*Xtremolo	*	*	*	*	*	*	*	*	*	*	*	*	*	*	*	*	*	*	*	*	*	*
!	!	!LO:SIC:v:s=8d 8B\	!	!	!	!	!	!	!	!	!	!	!	!	!	!	!	!	!	!	!	!	!	!	!	!
8BB-/	.	8e- 8c\	.	8b-L 8f/	.	16ff\LL	.	4r	.	.	4r	.	.	4r	.	.	4r	.	.	.	.	.	.	.	.	.
.	.	.	.	.	.	16gg\	.	.	.	.	.	.	.	.	.	.	.	.	.	.	.	.	.	.	.	.
!	!	!LO:SIC:v:s=8d 8B\	!	!	!	!	!	!	!	!	!	!	!	!	!	!	!	!	!	!	!	!	!	!	!	!
8BB-/J	.	8e-J 8c\	.	8b-J 8f/	.	16aa\	.	.	.	.	.	.	.	.	.	.	.	.	.	.	.	.	.	.	.	.
.	.	.	.	.	.	16bb-\JJ	.	.	.	.	.	.	.	.	.	.	.	.	.	.	.	.	.	.	.	.
*	*	*Xtremolo	*	*	*	*	*	*	*	*	*	*	*	*	*	*	*	*	*	*	*	*	*	*	*	*
=33	=33	=33	=33	=33	=33	=33	=33	=33	=33	=33	=33	=33	=33	=33	=33	=33	=33	=33	=33	=33	=33	=33	=33	=33	=33	=33
8B-\L	.	8en\L	.	8b-L 8g\	.	(16ff\LL	.	(4B-\	mi-	.	2c\	mi-	.	(4g\	mi-	.	(4een\	mi-	2c/	.	2g\	.	(4cc\	.	(4eeX\	.
.	.	.	.	.	.	16een\)	.	.	.	.	.	.	.	.	.	.	.	.	.	.	.	.	.	.	.	.
8B-\	.	8e\	.	8b-J 8g\	.	16ee\|	.	.	.	.	.	.	.	.	.	.	.	.	.	.	.	.	.	.	.	.
.	.	.	.	.	.	16ee\JJ|	.	.	.	.	.	.	.	.	.	.	.	.	.	.	.	.	.	.	.	.
8G\	.	8c\	.	8b-L 8g\	.	(16gg\LL	.	4G\)	.	.	.	.	.	4b-\)	.	.	4gg\)	.	.	.	.	.	4eeX\)	.	4gg\)	.
.	.	.	.	.	.	16b-\)	.	.	.	.	.	.	.	.	.	.	.	.	.	.	.	.	.	.	.	.
8G\	.	8c\	.	8b- 8g\	.	16b-\|	.	.	.	.	.	.	.	.	.	.	.	.	.	.	.	.	.	.	.	.
*	*	*	*	*	*	*custos:g	*	*	*	*	*	*	*	*	*	*	*	*	*	*	*	*	*	*	*	*
.	.	.	.	.	.	16b-\JJ|	.	.	.	.	.	.	.	.	.	.	.	.	.	.	.	.	.	.	.	.
!	!	!	!	!	!	!LO:LB:g=original	!	!	!	!	!	!	!	!	!	!	!	!	!	!	!	!	!	!	!	!
8En\	.	8c\	.	8g\	.	16bb-'\LL	.	4En\	-se-	.	4c\	-se-	.	4g\	-se-	.	4b-\	-se-	4c/	.	4g\	.	4gg'\	.	4bb-\	.
.	.	.	.	.	.	16b-'\	.	.	.	.	.	.	.	.	.	.	.	.	.	.	.	.	.	.	.	.
8E\J	.	8c\J	.	8g\J	.	(16cc\	.	.	.	.	.	.	.	.	.	.	.	.	.	.	.	.	.	.	.	.
.	.	.	.	.	.	16b-\JJ)	.	.	.	.	.	.	.	.	.	.	.	.	.	.	.	.	.	.	.	.
!	!	!LO:LB:g=original	!	!	!	!	!	!	!	!	!	!	!	!LO:LB:g=original	!	!	!	!	!LO:LB:g=original	!	!	!	!	!	!	!
=34	=34	=34	=34	=34	=34	=34	=34	=34	=34	=34	=34	=34	=34	=34	=34	=34	=34	=34	=34	=34	=34	=34	=34	=34	=34	=34
*tremolo	*	*tremolo	*	*tremolo	*	*	*	*	*	*	*	*	*	*	*	*	*	*	*	*	*	*	*	*	*	*
8F\L	.	8c\L	.	8a/L	.	(16a\LL	.	2F\	-re-	.	2c\	-re-	.	4f\	-re-	.	(4a\	-re-	2f\	.	2a\	.	2cc\	.	2aa\	.
.	.	.	.	.	.	16aa\	.	.	.	.	.	.	.	.	.	.	.	.	.	.	.	.	.	.	.	.
8F\	.	8c\	.	8a/	.	16gg\	.	.	.	.	.	.	.	.	.	.	.	.	.	.	.	.	.	.	.	.
.	.	.	.	.	.	16ff\JJ)	.	.	.	.	.	.	.	.	.	.	.	.	.	.	.	.	.	.	.	.
8F\	.	8c\	.	8a/	.	(16een\LL	.	.	.	.	.	.	.	4a\	.	.	4cc\)	.	.	.	.	.	.	.	.	.
.	.	.	.	.	.	16ff\	.	.	.	.	.	.	.	.	.	.	.	.	.	.	.	.	.	.	.	.
8F\J	.	8c\J	.	8a/J	.	16gg\	.	.	.	.	.	.	.	.	.	.	.	.	.	.	.	.	.	.	.	.
.	.	.	.	.	.	16ff\JJ)	.	.	.	.	.	.	.	.	.	.	.	.	.	.	.	.	.	.	.	.
*Xtremolo	*	*Xtremolo	*	*Xtremolo	*	*	*	*	*	*	*	*	*	*	*	*	*	*	*	*	*	*	*	*	*	*
8A\L	.	8A\L	.	8f~/L	.	(16bn\LL	.	4A\	-re	.	4c\	-re	.	4f\	-re	.	4ff\	-re	4F/	.	4f\	.	4cc\	.	4ff\	.
.	.	.	.	.	.	16cc\	.	.	.	.	.	.	.	.	.	.	.	.	.	.	.	.	.	.	.	.
8A\J	.	8A\J	.	8f~/J	.	16dd\	.	.	.	.	.	.	.	.	.	.	.	.	.	.	.	.	.	.	.	.
.	.	.	.	.	.	16cc\JJ)	.	.	.	.	.	.	.	.	.	.	.	.	.	.	.	.	.	.	.	.
!	!	!	!	!	!	!	!	!	!	!	!	!	!	!	!	!	!	!	!	!	!LO:LB:g=original	!	!	!	!	!
=35	=35	=35	=35	=35	=35	=35	=35	=35	=35	=35	=35	=35	=35	=35	=35	=35	=35	=35	=35	=35	=35	=35	=35	=35	=35	=35
*tremolo	*	*tremolo	*	*	*	*	*	*	*	*	*	*	*	*	*	*	*	*	*	*	*	*	*	*	*	*
8B-\L	.	8B-/L	.	8f/L	.	(16dd\LL	.	4.B-\	mi-	.	4.d\	mi-	.	4.g\	mi-	.	4.dd\	mi-	2.g\	.	2.g\	.	2.dd\	.	2.ff\	.
.	.	.	.	.	.	16ff\	.	.	.	.	.	.	.	.	.	.	.	.	.	.	.	.	.	.	.	.
8B-\	.	8B-/	.	8dd/J	.	16gg\	.	.	.	.	.	.	.	.	.	.	.	.	.	.	.	.	.	.	.	.
.	.	.	.	.	.	16ff\JJ	.	.	.	.	.	.	.	.	.	.	.	.	.	.	.	.	.	.	.	.
*	*	*	*	*tremolo	*	*	*	*	*	*	*	*	*	*	*	*	*	*	*	*	*	*	*	*	*	*
8B-\	.	8B-/	.	8ddL 8f/	.	16gg\LL	.	.	.	.	.	.	.	.	.	.	.	.	.	.	.	.	.	.	.	.
.	.	.	.	.	.	16ff\	.	.	.	.	.	.	.	.	.	.	.	.	.	.	.	.	.	.	.	.
8B-\J	.	8B-/	.	8dd 8f/	.	16gg\	.	8B-\	-se-	.	8d\	-se-	.	8g\	-se-	.	8dd\	-se-	.	.	.	.	.	.	.	.
.	.	.	.	.	.	16ff\JJ	.	.	.	.	.	.	.	.	.	.	.	.	.	.	.	.	.	.	.	.
*Xtremolo	*	*	*	*	*	*	*	*	*	*	*	*	*	*	*	*	*	*	*	*	*	*	*	*	*	*
8BB-/L	.	8B-/	.	8dd 8f/	.	16gg\LL	.	8B-\	-re-	.	8d\	-re-	.	8g\	-re-	.	8dd\	-re-	.	.	.	.	.	.	.	.
.	.	.	.	.	.	16ff\	.	.	.	.	.	.	.	.	.	.	.	.	.	.	.	.	.	.	.	.
8BB-/J	.	8B-/J	.	8ddJ 8f/	.	16gg\	.	8B-\	-re	.	8d\	-re	.	8g\	-re	.	8dd\	-re	.	.	.	.	.	.	.	.
.	.	.	.	.	.	16ff\JJ)	.	.	.	.	.	.	.	.	.	.	.	.	.	.	.	.	.	.	.	.
!LO:LB:g=original	!	!	!	!	!	!	!	!	!	!	!	!	!	!	!	!	!	!	!	!	!	!	!	!	!	!
=36	=36	=36	=36	=36	=36	=36	=36	=36	=36	=36	=36	=36	=36	=36	=36	=36	=36	=36	=36	=36	=36	=36	=36	=36	=36	=36
*tremolo	*	*	*	*	*	*	*	*	*	*	*	*	*	*	*	*	*	*	*	*	*	*	*	*	*	*
!	!	!	!	!	!	!	!	!	!	!	!	!	!	!	!	!	!	!	!	!	!	!	!	!	!	!LO:DY:t=f.
8BBn/L	.	8dL 8Bn/	.	8ffL 8dd\	.	(16dd\LL	.	2.Bn\	no-	.	2.d\	no-	.	2.a-X\	no-	.	2.ff\	no-	2.F/	.	2.f\	.	(2ff\	.	(2aa-X\	f
.	.	.	.	.	.	16ff\	.	.	.	.	.	.	.	.	.	.	.	.	.	.	.	.	.	.	.	.
8BB/	.	8d 8B/	.	8ff 8dd\	.	16aa-X\)	sf	.	.	.	.	.	.	.	.	.	.	.	.	.	.	.	.	.	.	.
.	.	.	.	.	.	16ff\JJ	.	.	.	.	.	.	.	.	.	.	.	.	.	.	.	.	.	.	.	.
8BB/	.	8d 8B/	.	8ff 8dd\	.	(16aa-\LL	.	.	.	.	.	.	.	.	.	.	.	.	.	.	.	.	.	.	.	.
.	.	.	.	.	.	16ff\	.	.	.	.	.	.	.	.	.	.	.	.	.	.	.	.	.	.	.	.
8BB/	.	8d 8B/	.	8ff 8dd\	.	16aa-\)	.	.	.	.	.	.	.	.	.	.	.	.	.	.	.	.	.	.	.	.
.	.	.	.	.	.	16ff\JJ	.	.	.	.	.	.	.	.	.	.	.	.	.	.	.	.	.	.	.	.
8BB/	.	8d 8B/	.	8ff 8dd\	.	(16aa-\LL	.	.	.	.	.	.	.	.	.	.	.	.	.	.	.	.	4dd\)	.	4ff\)	.
.	.	.	.	.	.	16ff\	.	.	.	.	.	.	.	.	.	.	.	.	.	.	.	.	.	.	.	.
8BB/J	.	8dJ 8B/	.	8ffJ 8dd\	.	16aa-\)	.	.	.	.	.	.	.	.	.	.	.	.	.	.	.	.	.	.	.	.
.	.	.	.	.	.	16ff\JJ	.	.	.	.	.	.	.	.	.	.	.	.	.	.	.	.	.	.	.	.
*Xtremolo	*	*Xtremolo	*	*Xtremolo	*	*	*	*	*	*	*	*	*	*	*	*	*	*	*	*	*	*	*	*	*	*
=37	=37	=37	=37	=37	=37	=37	=37	=37	=37	=37	=37	=37	=37	=37	=37	=37	=37	=37	=37	=37	=37	=37	=37	=37	=37	=37
!	!	!	!	!LO:TX:t=P:problem=mixed beam	!	!	!	!	!	!	!	!	!	!	!	!	!	!	!	!	!	!	!	!	!	!
4C/	.	8c\L	f	8ee-L 8cc\	.	8een\	.	4c\	-bis.	.	4c\	-bis.	.	4g\	-bis	.	4een\	-bis	4c/	.	4g\	.	4cc\	.	4eeX\	.
!	!	!	!	!	!	!	!LO:DY:a	!	!	!	!	!	!	!	!	!	!	!	!	!	!	!	!	!	!	!
.	.	8c\	.	8en/	.	4gg\	p	.	.	.	.	.	.	.	.	.	.	.	.	.	.	.	.	.	.	.
!	!	!	!	!	!LO:HP:t=cres.	!	!	!	!	!	!	!	!	!	!	!	!	!	!	!	!	!	!	!	!	!
4r	.	8en\	.	8g/	<	.	.	4r	.	.	4r	.	.	4r	.	.	4r	.	4r	.	4r	.	4r	.	4r	.
.	.	8c\	.	8e/	.	16ee\LL	.	.	.	.	.	.	.	.	.	.	.	.	.	.	.	.	.	.	.	.
.	.	.	.	.	.	16cc\JJ	.	.	.	.	.	.	.	.	.	.	.	.	.	.	.	.	.	.	.	.
4GG/	p	8d\	.	8f/	.	16bn\LL	.	4r	.	.	4r	.	.	4r	.	.	4r	.	4r	.	4r	.	4r	.	4r	.
.	.	.	.	.	.	16dd\	.	.	.	.	.	.	.	.	.	.	.	.	.	.	.	.	.	.	.	.
.	.	8Bn\J	.	8d/J	.	16gg\	.	.	.	.	.	.	.	.	.	.	.	.	.	.	.	.	.	.	.	.
.	.	.	.	.	.	16ff\JJ	.	.	.	.	.	.	.	.	.	.	.	.	.	.	.	.	.	.	.	.
!	!	!	!	!LO:LB:g=original	!	!LO:LB:g=original	!	!	!	!	!	!	!	!	!	!	!	!	!	!	!	!	!	!	!LO:LB:g=original	!
=38	=38	=38	=38	=38	=38	=38	=38	=38	=38	=38	=38	=38	=38	=38	=38	=38	=38	=38	=38	=38	=38	=38	=38	=38	=38	=38
!	!	!	!	!	!	!	!	!	!	!	!	!	!	!	!	!	!	!	!	!	!LO:N:vis=0	!	!	!	!	!
!LO:TX:t=P:problem=mixed beam	!	!	!	!LO:SIC:v:s=8en/	!	!	!	!LO:TX:a:t=2.	!	!	!LO:TX:a:t=2.	!	!	!LO:TX:a:t=2.	!	!	!LO:TX:a:t=2.	!	!LO:TX:a:t=2.	!	!LO:TX:a:t=2.	!	!	!	!LO:TX:a:i:t=Solo.	!
8C/L	.	8c/L	p	8e-/	.	8een\	.	1.r	.	.	1.r	.	.	1.r	.	.	1.r	.	1.r	.	2.r	.	8cc\	.	8eeX\	.
!	!	!	!	!	!	!	!	!	!	!	!	!	!	!	!	!	!	!	!	!	!	!	!LO:N:vis=4	!	!	!
8c\	.	8En/	.	4G/	.	4g/	.	.	.	.	.	.	.	.	.	.	.	.	.	.	.	.	4.eeX\	p	4gg\	.
!LO:SIC:v:s=8en\|	!	!	!	!	!LO:DY:a	!	!	!	!	!	!	!	!	!	!	!	!	!	!	!	!	!	!	!	!	!
8e-\|	.	8G/	.	.	p	.	.	.	.	.	.	.	.	.	.	.	.	.	.	.	.	.	.	.	.	.
8c\|	.	8E/	.	4G/	.	16en/LL	.	.	.	.	.	.	.	.	.	.	.	.	.	.	.	.	.	.	8ee\L	.
.	.	.	.	.	.	16c/JJ	.	.	.	.	.	.	.	.	.	.	.	.	.	.	.	.	.	.	.	.
8d\|	.	8G/	.	.	.	16Bn/LL	.	.	.	.	.	.	.	.	.	.	.	.	.	.	.	.	8dd\L	.	8ff\	.
.	.	.	.	.	.	16d/	.	.	.	.	.	.	.	.	.	.	.	.	.	.	.	.	.	.	.	.
8G\J|	.	8D/J	.	8G/	.	16f/	.	.	.	.	.	.	.	.	.	.	.	.	.	.	.	.	8bX\J	.	8dd\J	.
.	.	.	.	.	.	16B/JJ	.	.	.	.	.	.	.	.	.	.	.	.	.	.	.	.	.	.	.	.
=39	=39	=39	=39	=39	=39	=39	=39	=39	=39	=39	=39	=39	=39	=39	=39	=39	=39	=39	=39	=39	=39	=39	=39	=39	=39	=39
!	!	!	!	!	!	!	!	!	!	!	!	!	!	!	!	!	!LO:TX:b:i:t=Verte	!	!	!	!	!	!	!	!	!
4C/	.	4En/	.	4G/	.	4c/	.	.	.	.	.	.	.	.	.	.	.	.	.	.	2.r	.	4cc\	.	4cc\	.
!	!	!	!	!	!	!	!LO:DY:a:t=rf.	!	!	!	!	!	!	!	!	!	!	!	!	!	!	!	!LO:SIC:v:s=4f#/	!	!	!
4C/	.	4E/	.	4G/	.	4c/	rfz	.	.	.	.	.	.	.	.	.	.	.	.	.	.	.	4e-/	.	4cc\	.
!	!	!	!	!	!	!	!	!	!	!	!	!	!	!	!	!	!	!	!	!	!	!	!LO:TX:b:i:t=Verte	!	!	!
4r	.	4r	.	4r	.	4r	.	.	.	.	.	.	.	.	.	.	.	.	.	.	.	.	4r	.	4r	.
==	==	==	==	==	==	==	==	==	==	==	==	==	==	==	==	==	==	==	==	==	==	==	==	==	==	==
*-	*-	*-	*-	*-	*-	*-	*-	*-	*-	*-	*-	*-	*-	*-	*-	*-	*-	*-	*-	*-	*-	*-	*-	*-	*-	*-
!!!system-decoration: [(g1)][(g2)][(g3)][(g4)]s12
!!!RDF**kern: < = below
!!!RDF**kern: | = vertical stroke
!!!RDF**dynam: p = "p."
!!!RDF**dynam: f = "for."
!!!RDF**dynam: fp = "fp."
!!!ENC: Krzysztof Stępień
!!!END: 2020-09-18
!!!ENC: Marta Lawrence
!!!END: 2022-01-31
